svgs/arrows/expand-04.svg

<svg width="24" height="24" viewBox="0 0 24 24" fill="none" xmlns="http://www.w3.org/2000/svg">
<path d="M20 14V16.8C20 17.9201 20 18.4802 19.782 18.908C19.5903 19.2843 19.2843 19.5903 18.908 19.782C18.4802 20 17.9201 20 16.8 20H14M10 4H7.2C6.0799 4 5.51984 4 5.09202 4.21799C4.71569 4.40973 4.40973 4.71569 4.21799 5.09202C4 5.51984 4 6.07989 4 7.2V10M15 9L21 3M21 3H15M21 3V9M9 15L3 21M3 21H9M3 21L3 15" stroke="#1C1D20" stroke-width="1.5" stroke-linecap="round" stroke-linejoin="round"/>
</svg>

<svg fill="none" xmlns="http://www.w3.org/2000/svg" viewBox="0 0 24 24"><path d="M20 14v2.8c0 1.12 0 1.68-.218 2.108a2 2 0 0 1-.874.874C18.48 20 17.92 20 16.8 20H14M10 4H7.2c-1.12 0-1.68 0-2.108.218a2 2 0 0 0-.874.874C4 5.52 4 6.08 4 7.2V10m11-1 6-6m0 0h-6m6 0v6M9 15l-6 6m0 0h6m-6 0v-6" stroke="#1C1D20" stroke-width="1.5" stroke-linecap="round" stroke-linejoin="round"/></svg>
